X:8
T:Ambulree
R:Reel
B:The Athole Collection
M:C|
L:1/8
K:G
A|B2BG c2cA|B2BG A=FFA|B2BG c2cA|B/c/d e/f/g BGG:|
g|e2 ec d2 dB|A/B/c =f2 A=FFf|e2 ec d2dc|B/c/d e/f/g BGG=f|e2 ec d2dB|
A/_B/c =f2 A=FFf|eeec dddc|B/c/d e/f/g BGG||

